lib/flags/mz-mozambique.svg

<svg xmlns="http://www.w3.org/2000/svg" fill="none" aria-hidden="true" viewBox="0 0 42 30"><g id="Country=MZ - Mozambique, Size=sm (36x24)" filter="url(#filter0_dd_91_26223)"><g clip-path="url(#clip0_91_26223)"><g id="flag"><mask id="mask0_91_26223" width="36" height="24" x="3" y="2" maskUnits="userSpaceOnUse" style="mask-type:alpha"><rect id="mask" width="36" height="24" x="3" y="2" fill="white"/></mask><g mask="url(#mask0_91_26223)"><g id="contents"><path id="background" fill="#F7FCFF" fill-rule="evenodd" d="M3 2V26H39V2H3Z" clip-rule="evenodd"/><g id="Object"><mask id="mask1_91_26223" width="36" height="24" x="3" y="2" maskUnits="userSpaceOnUse" style="mask-type:alpha"><path id="background_2" fill="white" fill-rule="evenodd" d="M3 2V26H39V2H3Z" clip-rule="evenodd"/></mask><g mask="url(#mask1_91_26223)"><path id="top" fill="#FECA00" fill-rule="evenodd" d="M3 2V10H39V2H3Z" clip-rule="evenodd"/><path id="bottom" fill="#009933" fill-rule="evenodd" d="M3 18V26H39V18H3Z" clip-rule="evenodd"/><path id="middle" fill="#272727" stroke="white" stroke-width="2" d="M3 9H2V10V18V19H3H39H40V18V10V9H39H3Z"/></g></g><path id="triangle" fill="#F50100" fill-rule="evenodd" d="M3 2V26L23.25 14L3 2Z" clip-rule="evenodd"/><mask id="mask2_91_26223" width="21" height="24" x="3" y="2" maskUnits="userSpaceOnUse" style="mask-type:alpha"><path id="triangle_2" fill="white" fill-rule="evenodd" d="M3 2V26L23.25 14L3 2Z" clip-rule="evenodd"/></mask><g mask="url(#mask2_91_26223)"><path id="Star 5" fill="#FECA00" fill-rule="evenodd" d="M12.0773 16.3532L7.82597 19.4037L9.77601 15.3271L6.42529 12.4588H10.3804L12.0033 9L13.727 12.4588H17.6753L14.1476 15.3271L15.9131 19.4037L12.0773 16.3532Z" clip-rule="evenodd"/><g id="mark"><path id="Path 178" fill="#F7FCFF" fill-rule="evenodd" d="M9.9256 13.984L9.20459 16.1245C9.20459 16.1245 11.6387 16.1031 11.931 16.3217C12.8119 15.8335 14.6254 16.1245 14.6254 16.1245L13.6608 13.8338C13.6608 13.8338 12.4379 13.3412 11.931 13.6113C10.6887 13.3618 9.9256 13.984 9.9256 13.984Z" clip-rule="evenodd"/><path id="Path 176" fill="black" d="M16.0094 17.2163C16.1963 17.4369 16.1466 17.7504 15.8984 17.9165C15.6502 18.0826 15.2976 18.0385 15.1107 17.8179L10.4081 12.2666C10.2212 12.046 10.2709 11.7325 10.5191 11.5664C10.7673 11.4003 11.1199 11.4445 11.3068 11.6651L16.0094 17.2163Z"/><path id="Path 176_2" stroke="black" stroke-linecap="round" stroke-linejoin="round" d="M10.846 11.8399L10.396 11.3599"/><path id="Path 177" fill="black" fill-rule="evenodd" d="M9.30537 11.3623L7.9458 13.2976L8.62559 14.3443L10.1805 12.2901L10.4602 11.6549L10.1805 11.3623H9.30537Z" clip-rule="evenodd"/><path id="Path 179" fill="black" fill-rule="evenodd" d="M7.54395 17.1085L8.1994 17.9303L13.257 12.6112L13.4668 12.8196L14.6326 11.8447L16.4958 10.043L14.6326 11.3966L14.03 11.248L13.4668 12.0346H12.9017L8.77059 16.1223L7.54395 17.1085Z" clip-rule="evenodd"/></g></g></g></g></g></g></g><defs><filter id="filter0_dd_91_26223" width="42" height="30" x="0" y="0" color-interpolation-filters="sRGB" filterUnits="userSpaceOnUse"><feFlood flood-opacity="0" result="BackgroundImageFix"/><feColorMatrix in="SourceAlpha" result="hardAlpha" values="0 0 0 0 0 0 0 0 0 0 0 0 0 0 0 0 0 0 127 0"/><feOffset dy="1"/><feGaussianBlur stdDeviation="1"/><feColorMatrix values="0 0 0 0 0.0627451 0 0 0 0 0.0941176 0 0 0 0 0.156863 0 0 0 0.06 0"/><feBlend in2="BackgroundImageFix" result="effect1_dropShadow_91_26223"/><feColorMatrix in="SourceAlpha" result="hardAlpha" values="0 0 0 0 0 0 0 0 0 0 0 0 0 0 0 0 0 0 127 0"/><feOffset dy="1"/><feGaussianBlur stdDeviation="1.5"/><feColorMatrix values="0 0 0 0 0.0627451 0 0 0 0 0.0941176 0 0 0 0 0.156863 0 0 0 0.1 0"/><feBlend in2="effect1_dropShadow_91_26223" result="effect2_dropShadow_91_26223"/><feBlend in="SourceGraphic" in2="effect2_dropShadow_91_26223" result="shape"/></filter><clipPath id="clip0_91_26223"><rect width="36" height="24" x="3" y="2" fill="white" rx="2"/></clipPath></defs></svg>

<svg xmlns="http://www.w3.org/2000/svg" fill="none" aria-hidden="true" viewBox="0 0 42 30"><g filter="url(#a)"><g clip-path="url(#b)"><mask id="c" width="36" height="24" x="3" y="2" maskUnits="userSpaceOnUse" style="mask-type:alpha"><path fill="#fff" d="M3 2h36v24H3z"/></mask><g mask="url(#c)"><path fill="#F7FCFF" fill-rule="evenodd" d="M3 2v24h36V2H3Z" clip-rule="evenodd"/><mask id="d" width="36" height="24" x="3" y="2" maskUnits="userSpaceOnUse" style="mask-type:alpha"><path fill="#fff" fill-rule="evenodd" d="M3 2v24h36V2H3Z" clip-rule="evenodd"/></mask><g mask="url(#d)"><path fill="#FECA00" fill-rule="evenodd" d="M3 2v8h36V2H3Z" clip-rule="evenodd"/><path fill="#093" fill-rule="evenodd" d="M3 18v8h36v-8H3Z" clip-rule="evenodd"/><path fill="#272727" stroke="#fff" stroke-width="2" d="M3 9H2v10h38V9H3Z"/></g><path fill="#F50100" fill-rule="evenodd" d="M3 2v24l20.25-12L3 2Z" clip-rule="evenodd"/><mask id="e" width="21" height="24" x="3" y="2" maskUnits="userSpaceOnUse" style="mask-type:alpha"><path fill="#fff" fill-rule="evenodd" d="M3 2v24l20.25-12L3 2Z" clip-rule="evenodd"/></mask><g mask="url(#e)"><path fill="#FECA00" fill-rule="evenodd" d="m12.077 16.353-4.251 3.05 1.95-4.076-3.35-2.868h3.954L12.003 9l1.724 3.459h3.948l-3.527 2.868 1.765 4.077-3.836-3.05Z" clip-rule="evenodd"/><path fill="#F7FCFF" fill-rule="evenodd" d="m9.926 13.984-.721 2.14s2.434-.02 2.726.198c.88-.488 2.694-.197 2.694-.197l-.964-2.291s-1.223-.493-1.73-.223c-1.242-.25-2.005.373-2.005.373Z" clip-rule="evenodd"/><path fill="#000" d="M16.01 17.216c.186.22.137.534-.112.7a.61.61 0 0 1-.787-.098l-4.703-5.551c-.187-.221-.137-.534.111-.7a.61.61 0 0 1 .788.098l4.702 5.551Z"/><path stroke="#000" stroke-linecap="round" stroke-linejoin="round" d="m10.846 11.84-.45-.48"/><path fill="#000" fill-rule="evenodd" d="m9.305 11.362-1.36 1.936.68 1.046 1.556-2.054.28-.635-.28-.293h-.876Zm-1.761 5.746.655.822 5.058-5.319.21.209 1.166-.975 1.863-1.802-1.863 1.354-.603-.149-.563.787h-.565L8.77 16.122l-1.227.986Z" clip-rule="evenodd"/></g></g></g></g><defs><clipPath id="b"><rect width="36" height="24" x="3" y="2" fill="#fff" rx="2"/></clipPath><filter id="a" width="42" height="30" x="0" y="0" color-interpolation-filters="sRGB" filterUnits="userSpaceOnUse"><feFlood flood-opacity="0" result="BackgroundImageFix"/><feColorMatrix in="SourceAlpha" result="hardAlpha" values="0 0 0 0 0 0 0 0 0 0 0 0 0 0 0 0 0 0 127 0"/><feOffset dy="1"/><feGaussianBlur stdDeviation="1"/><feColorMatrix values="0 0 0 0 0.0627451 0 0 0 0 0.0941176 0 0 0 0 0.156863 0 0 0 0.06 0"/><feBlend in2="BackgroundImageFix" result="effect1_dropShadow_91_26223"/><feColorMatrix in="SourceAlpha" result="hardAlpha" values="0 0 0 0 0 0 0 0 0 0 0 0 0 0 0 0 0 0 127 0"/><feOffset dy="1"/><feGaussianBlur stdDeviation="1.5"/><feColorMatrix values="0 0 0 0 0.0627451 0 0 0 0 0.0941176 0 0 0 0 0.156863 0 0 0 0.1 0"/><feBlend in2="effect1_dropShadow_91_26223" result="effect2_dropShadow_91_26223"/><feBlend in="SourceGraphic" in2="effect2_dropShadow_91_26223" result="shape"/></filter></defs></svg>
